vendor/shopware/storefront/Resources/app/storefront/dist/assets/icon/default/editor-strikethrough.svg

<svg xmlns="http://www.w3.org/2000/svg" width="12" height="12" viewBox="0 0 12 12">
  <path fill="#758CA3" fill-rule="evenodd" d="M7,10 C7.55228475,10 8,10.4477153 8,11 C8,11.5522847 7.55228475,12 7,12 L5,12 C4.44771525,12 4,11.5522847 4,11 C4,10.4477153 4.44771525,10 5,10 L5,8 L7,8 L7,10 Z M7,2 L7,4 L5,4 L5,2 L3,2 C3,2.55228475 2.55228475,3 2,3 C1.44771525,3 1,2.55228475 1,2 L1,1 C1,0.44771525 1.44771525,0 2,0 L10,0 C10.5522847,0 11,0.44771525 11,1 L11,2 C11,2.55228475 10.5522847,3 10,3 C9.44771525,3 9,2.55228475 9,2 L7,2 Z M1,7 C0.44771525,7 0,6.55228475 0,6 C0,5.44771525 0.44771525,5 1,5 L11,5 C11.5522847,5 12,5.44771525 12,6 C12,6.55228475 11.5522847,7 11,7 L1,7 Z"/>
</svg>

<svg xmlns="http://www.w3.org/2000/svg" width="12" height="12" viewBox="0 0 12 12"><path fill="#758CA3" fill-rule="evenodd" d="M7 10c.5523 0 1 .4477 1 1s-.4477 1-1 1H5c-.5523 0-1-.4477-1-1s.4477-1 1-1V8h2v2zm0-8v2H5V2H3c0 .5523-.4477 1-1 1s-1-.4477-1-1V1c0-.5523.4477-1 1-1h8c.5523 0 1 .4477 1 1v1c0 .5523-.4477 1-1 1s-1-.4477-1-1H7zM1 7c-.5523 0-1-.4477-1-1s.4477-1 1-1h10c.5523 0 1 .4477 1 1s-.4477 1-1 1H1z"/></svg>
